X:143
T:Ductie
C:Anon. 
L:1/8
K:C
V:1
f2e f2g | eLfd e2f/e/ | dLcd e2f/e/ | d3d2z | d2e f2g | e2d e2f |
dLBc d2e | c3c2z | d2e f2e/d/ | cLAG A2c | BLGA B2A | G2B d2Le | f2e dLef |
eLcd e2f/e/ | dLec d2e | f3f2z | f2g f2d | e2fe2c | d2c "(b)"B2c | d3 d2Le |
f2g f2d | e2f e2c | d2e d2B | c3c2z | f2g f2d | e2f e2c | d2c B2c | 
d3 d2Le | f2g f2d | e2f e2c | d2e d2B | c3c2z | f2g f/Le/fd | e2f e/Ld/ec |
d2c B2c | d3 d2Le | f2g f/Le/fd | e2f e/Ld/ec | d2e d2B | c3c2z |]
V:2
B2c B2G | A2B A2F | G2F E2F | G3G2LA | B2c B2G | A2B A2F |
G2A G2E | F3F2z | B2c B2G | A2B A2F | G2F E2F | G3 G2LA | B2c B2G |
A2B A2F | G2A G2E | F3 F2z | B2A B2z | A2F A2z | G2A B2A | G3G2z |
B2AB2z | A2F A2z | G2F G2A | F3F2z | BAGF3 | AGFE3 | D2C E2F |
D3D2z | BAGF3 | AGFE3 | GFE D2E | C3C2LE | F2GF3 | E2G A3 |
G2F G2A | G3G2z | F2G F2G | E2G A2B | G2F G2A | F3F2z |]





